svgs/duolingo.svg

<svg width="24" height="24" viewBox="0 0 24 24" fill="none" xmlns="http://www.w3.org/2000/svg">
<path fill-rule="evenodd" clip-rule="evenodd" d="M10.2986 8.19259C10.2986 6.99259 9.33064 6.01481 8.14264 6.01481C6.95464 6.01481 5.98664 6.99259 5.98664 8.19259V9.51111C5.98664 10.7111 6.95464 11.6889 8.14264 11.6889C9.33064 11.6889 10.2986 10.7111 10.2986 9.51111V8.19259ZM9.49197 8.28148C9.49197 7.71852 9.0373 7.25926 8.47997 7.25926C8.32743 7.25926 8.18258 7.29366 8.05264 7.35518C8.1973 7.47747 8.28931 7.66121 8.28931 7.86666C8.28931 8.23485 7.99382 8.53333 7.62931 8.53333C7.57365 8.53333 7.5196 8.52637 7.46797 8.51327V9.40741C7.46797 9.97037 7.92263 10.4296 8.47997 10.4296C9.0373 10.4296 9.49197 9.97037 9.49197 9.40741V8.28148Z" fill="black"/>
<path fill-rule="evenodd" clip-rule="evenodd" d="M17.8813 8.19259C17.8813 6.99259 16.9133 6.01481 15.7253 6.01481C14.5373 6.01481 13.5693 6.99259 13.5693 8.19259V9.51111C13.5693 10.7111 14.5373 11.6889 15.7253 11.6889C16.9133 11.6889 17.8813 10.7111 17.8813 9.51111V8.19259ZM16.4 8.28148C16.4 7.71852 15.9453 7.25926 15.388 7.25926C15.2055 7.25926 15.034 7.30849 14.8859 7.39448C15.0058 7.51518 15.08 7.68217 15.08 7.86666C15.08 8.23485 14.7845 8.53333 14.42 8.53333C14.4052 8.53333 14.3905 8.53284 14.376 8.53187V9.40741C14.376 9.97037 14.8307 10.4296 15.388 10.4296C15.9453 10.4296 16.4 9.97037 16.4 9.40741V8.28148Z" fill="black"/>
<path fill-rule="evenodd" clip-rule="evenodd" d="M7.74666 2.29629C9.8 3.17036 11.208 3.61481 11.9707 3.61481C12.7333 3.61481 14.112 3.18518 16.136 2.3111C17.4707 1.73333 19.0253 2.37036 19.5973 3.71851C19.7293 4.04444 19.8027 4.39999 19.8027 4.75555V11.6508L22.7653 17.0667C23.0733 17.6296 22.7507 18.3259 22.12 18.4296C20.7336 18.7056 19.3282 18.5414 18.071 18.009C17.3809 18.876 16.5143 19.5935 15.5262 20.1058C15.7799 20.2919 15.9453 20.5937 15.9453 20.9333C15.9453 21.4963 15.4907 21.9556 14.9333 21.9556H13.3493C12.8034 21.9556 12.356 21.5149 12.3379 20.9678C12.2065 20.9744 12.0743 20.9778 11.9413 20.9778C11.8182 20.9774 11.6958 20.9741 11.5741 20.9681C11.5559 21.5151 11.1085 21.9556 10.5627 21.9556H8.97867C8.42134 21.9556 7.96667 21.4963 7.96667 20.9333C7.96667 20.5968 8.12915 20.2973 8.3789 20.1109C7.38886 19.6012 6.51983 18.8872 5.82699 18.0236C4.56962 18.5562 3.16393 18.7204 1.77733 18.4444C1.16133 18.3259 0.838662 17.6296 1.14666 17.0667L4.08 11.7044V4.74073C4.08 3.27407 5.25333 2.08888 6.72 2.08888C7.072 2.08888 7.40933 2.16296 7.74666 2.29629ZM11.3547 15.5556C11.384 15.4518 11.3107 15.363 11.208 15.363H9.22801C9.12535 15.363 9.05201 15.4667 9.08135 15.5556C9.24268 16.0148 9.69735 16.3407 10.2107 16.3407C10.724 16.3407 11.1933 16.0148 11.3547 15.5556ZM14.6547 15.363H12.6747C12.572 15.363 12.4987 15.4667 12.528 15.5556C12.6893 16.0148 13.144 16.3407 13.6573 16.3407C14.1707 16.3407 14.64 16.0148 14.8013 15.5556C14.8307 15.4667 14.7573 15.363 14.6547 15.363ZM12.924 17.037H10.944C10.8413 17.037 10.768 17.1407 10.7973 17.2296C10.9587 17.6889 11.4133 18.0148 11.9267 18.0148C12.44 18.0148 12.9093 17.6889 13.0707 17.2296C13.1147 17.1407 13.0413 17.037 12.924 17.037ZM8.20132 3.54074L10.4178 5.97305C11.2732 6.68435 12.6134 6.66004 13.511 5.90014C13.5908 5.81213 13.6756 5.72877 13.765 5.65051L15.652 3.54074C15.7693 3.40741 15.9893 3.42223 16.0773 3.58519C16.3134 3.99291 16.3992 4.45655 16.3409 4.90559L17.0013 4.16297C17.1333 4.02964 17.3533 4.04445 17.4267 4.22223C17.6517 4.61093 17.7402 5.05046 17.6975 5.4797C18.4765 6.04886 18.9813 6.97487 18.9813 8.01481V9.67407C18.9813 11.4074 17.588 12.8 15.8866 12.8H15.8133C14.61 12.8 13.5681 12.1034 13.056 11.0875V11.1556C13.056 11.763 12.5574 12.2667 11.956 12.2667C11.3547 12.2667 10.856 11.763 10.856 11.1556V11.0575L11.912 11.2444H11.9707L13.3933 10.9926C13.4373 11.0074 13.452 10.9778 13.452 10.9333V10.8741C13.32 10.2074 12.6893 9.68889 11.9707 9.68889C11.208 9.68889 10.5627 10.1926 10.4307 10.8741V10.9333C10.4307 10.9778 10.4453 10.9926 10.4893 10.9926L10.8462 11.0558C10.34 12.0913 9.28302 12.8 8.06932 12.8H7.98132C6.26532 12.8 4.88666 11.3926 4.88666 9.67407V8.02963C4.88666 6.97454 5.39748 6.04021 6.18427 5.47056C6.14368 5.04422 6.23251 4.60817 6.45599 4.22223C6.54399 4.04445 6.76399 4.02964 6.89599 4.16297L7.5552 4.90892C7.49429 4.45884 7.57628 3.99391 7.80532 3.58519C7.90799 3.42223 8.06932 3.40741 8.20132 3.54074ZM12.2787 10.4148C12.3667 10.4148 12.4547 10.3556 12.484 10.2815C12.528 10.163 12.4694 10.0444 12.352 10C12.0587 9.8963 11.78 9.8963 11.516 10C11.4134 10.0444 11.3547 10.163 11.3987 10.2815C11.4427 10.3852 11.56 10.4444 11.6774 10.4C11.8387 10.3259 12.0147 10.3259 12.2054 10.4C12.2347 10.4148 12.2494 10.4148 12.2787 10.4148Z" fill="black"/>
</svg>

<svg xmlns="http://www.w3.org/2000/svg" width="24" height="24" fill="none" viewBox="0 0 24 24"><path fill="#000" fill-rule="evenodd" d="M10.299 8.193c0-1.2-.968-2.178-2.156-2.178-1.188 0-2.156.978-2.156 2.178V9.51c0 1.2.968 2.178 2.156 2.178 1.188 0 2.156-.978 2.156-2.178zm-.807.088A1.02 1.02 0 0 0 8.48 7.26a.996.996 0 0 0-.427.096.668.668 0 0 1-.585 1.158v.894A1.02 1.02 0 0 0 8.48 10.43a1.02 1.02 0 0 0 1.012-1.023zm8.389-.088c0-1.2-.968-2.178-2.156-2.178-1.188 0-2.156.978-2.156 2.178V9.51c0 1.2.968 2.178 2.156 2.178 1.188 0 2.156-.978 2.156-2.178zM16.4 8.28a1.02 1.02 0 0 0-1.012-1.022.997.997 0 0 0-.502.135.668.668 0 0 1-.51 1.138v.875a1.02 1.02 0 0 0 1.012 1.023A1.02 1.02 0 0 0 16.4 9.407V8.281" clip-rule="evenodd"/><path fill="#000" fill-rule="evenodd" d="M7.747 2.296c2.053.874 3.461 1.319 4.224 1.319.762 0 2.141-.43 4.165-1.304 1.335-.578 2.89.06 3.461 1.408.132.325.206.681.206 1.037v6.895l2.962 5.416c.308.563-.014 1.259-.645 1.363a6.91 6.91 0 0 1-4.049-.421 7.91 7.91 0 0 1-2.545 2.097 1.025 1.025 0 0 1-.593 1.85H13.35c-.546 0-.993-.441-1.011-.988a7.904 7.904 0 0 1-.764 0 1.019 1.019 0 0 1-1.011.988H8.979a1.025 1.025 0 0 1-.6-1.845 7.927 7.927 0 0 1-2.552-2.087 6.911 6.911 0 0 1-4.05.42c-.616-.118-.938-.814-.63-1.377l2.933-5.363V4.741a2.64 2.64 0 0 1 3.667-2.445m3.608 13.26a.148.148 0 0 0-.147-.193h-1.98c-.103 0-.176.104-.147.193a1.2 1.2 0 0 0 1.13.785c.513 0 .982-.326 1.144-.785Zm3.3-.193h-1.98c-.103 0-.176.104-.147.193a1.2 1.2 0 0 0 1.13.785c.513 0 .982-.326 1.143-.785.03-.09-.044-.193-.146-.193m-1.731 1.674h-1.98c-.103 0-.176.104-.147.193a1.2 1.2 0 0 0 1.13.785c.513 0 .982-.326 1.144-.785.044-.09-.03-.193-.147-.193M8.201 3.541l2.217 2.432c.855.711 2.195.687 3.093-.073.08-.088.165-.171.254-.25l1.887-2.11a.26.26 0 0 1 .425.045c.236.408.322.872.264 1.32l.66-.742c.132-.133.352-.119.426.06.225.388.313.827.27 1.257a3.135 3.135 0 0 1 1.284 2.535v1.66c0 1.732-1.393 3.125-3.094 3.125h-.074a3.09 3.09 0 0 1-2.757-1.713v.069c0 .607-.499 1.11-1.1 1.11-.601 0-1.1-.503-1.1-1.11v-.099l1.056.187h.059l1.422-.251c.044.014.059-.015.059-.06v-.059c-.132-.667-.763-1.185-1.481-1.185-.763 0-1.408.504-1.54 1.185v.06c0 .044.014.059.058.059l.357.063A3.095 3.095 0 0 1 8.07 12.8h-.088c-1.716 0-3.094-1.407-3.094-3.126V8.03c0-1.055.51-1.99 1.297-2.56a2.09 2.09 0 0 1 .272-1.248c.088-.178.308-.192.44-.059l.66.746a2.11 2.11 0 0 1 .25-1.324c.102-.163.263-.178.395-.044Zm4.078 6.874a.23.23 0 0 0 .205-.133.215.215 0 0 0-.132-.282 1.161 1.161 0 0 0-.836 0 .22.22 0 0 0-.117.281.216.216 0 0 0 .278.119.654.654 0 0 1 .528 0c.03.015.044.015.074.015" clip-rule="evenodd"/></svg>
